X: 261
T: Ach Gott, vom Himmel sieh darein / 262. Ach Gott, vom Himmel sieh darein / Cantata BWV 2, Ach Gott, vom Himmel sieh darein
N: Derived from chor262.krn
C: Johann Sebastian Bach
%%abc-version 2.0
%%abcx-abcm2ps-target-version 5.9.1 (29 Sep 2008)
%%abc-creator hum2abc beta
%%abcx-conversion-date 2019/03/11 17:28:19
%%abc-edited-by Craig Stuart Sapp
%%humdrum-veritas 1079337322
%%humdrum-veritas-data 335446151
%%
%%barnumbers 0
L: 1/4
M: C
%%staves [1 2 3 4]
V: 1 clef=treble
V: 2 clef=treble
V: 3 clef=treble-8
V: 4 clef=bass
K: F
[V:1] A [I:setbarnb 1]| 
[V:2] ^F | 
[V:3] d | 
[V:4] D, | 
[V:1] BAGd | 
[V:2] G^FGB | 
[V:3] dcdg | 
[V:4] G,A,B,A,/G,/ | 
[V:1] d/c/B!fermata!Ac | 
[V:2] AG!fermata!^F_A | 
[V:3] dd!fermata!d_e | 
[V:4] ^F,G,!fermata!D,C, | 
[V:1] B=AGc | 
[V:2] G^F^CD | 
[V:3] =ed/c/BA | 
[V:4] ^C,D,=E,^F, | 
[V:1] BA!fermata!G :|]  
[V:2] D2!fermata!D :|]  
[V:3] G^F/c/!fermata!B :|]  
[V:4] G,D,!fermata!G,, :|]  
[V:1] G [I:setbarnb 5]| 
[V:2] D | 
[V:3] B | 
[V:4] G, | 
[V:1] AFED/E/ | 
[V:2] ED^CD | 
[V:3] AAAA | 
[V:4] ^C,D,A,/G,/ F,/E,/ | 
[V:1] FG!fermata!AF | 
[V:2] DD!fermata!ED/C/ | 
[V:3] Ad!fermata!^cA | 
[V:4] D,/=C,/B,,!fermata!A,,D, | 
[V:1] G/A/BAB | 
[V:2] B,/C/DCD | 
[V:3] GF/G/ A/G/^F | 
[V:4] _E,D,/=E,/ F,/_E,/ D,/C,/ | 
[V:1] G^F!fermata!GG | 
[V:2] D/_E/D!fermata!DD | 
[V:3] G/c/A!fermata!BB | 
[V:4] B,,/C,/D,!fermata!G,,G, | 
[V:1] dBcd | 
[V:2] DD_E=F | 
[V:3] AGGG | 
[V:4] ^F,G,/=F,/ _E,/D,/ C,/=B,,/ | 
[V:1] c_BA2 | 
[V:2] _ED^C/D/D/C/ | 
[V:3] GGG/F/=E | 
[V:4] C,G,,A,,2 | 
[V:1] !fermata!A3 |]  
[V:2] !fermata!D3 |]  
[V:3] !fermata!^F3 |]  
[V:4] !fermata!D,3 |]  



